X:1
T:Trio
T:Trio in D
T:Trio in D
T:Johann Peter Kellner (1705-1772)
T: originally for Organ (O 06.01) arr. for Flute, Violin and Cello 
T:Arrangement by Felix Scharpf
T:twoflutes 2019 / Felix Scharpf / https://commons.wikimedia.org/wiki/File:Gr%C3%A4fenroda_St._Laurentius_01.JPG
T:twoflutes 2019 / Felix Scharpf / https://commons.wikimedia.org/wiki/File:Gr%C3%A4fenroda_St._Laurentius_01.JPG
T:twoflutes 2019 / Felix Scharpf / https://commons.wikimedia.org/wiki/File:Gr%C3%A4fenroda_St._Laurentius_01.JPG
T:twoflutes 2019 / Felix Scharpf / https://commons.wikimedia.org/wiki/File:Gr%C3%A4fenroda_St._Laurentius_01.JPG
T:twoflutes 2019 / Felix Scharpf / https://commons.wikimedia.org/wiki/File:Gr%C3%A4fenroda_St._Laurentius_01.JPG
C:Johann Peter Kellner (1705-1772)
Z:twoflutes 2019 / Felix Scharpf / https://commons.wikimedia.org/wiki/File:Gr%C3%A4fenroda_St._Laurentius_01.JPG
%%score [ 1 2 3 ]
L:1/8
Q:1/4=105
M:4/4
K:D
V:1 treble nm="Flute" snm="Fl."
V:2 treble nm="Violin" snm="Vl."
V:3 bass nm="Cello" snm="Vc."
V:1
 z4 z2!mf! .ea- | a(g/f/) .g.e .f(f/e/) (f/a/)(^g/b/) | .a.e a2- a.d g2- | %3
 g(f/e/) (f/g/a/f/) (b/a/g/f/) (e/f/)(e/f/) | .e/(g/f/g/) (Pe>d) d2- d/(f/e/d/) | %5
 e/(d/c/B/) (c/B/)(d/c/) (PB3 A/B/ | A2) .EA- A^G/F/ .G.E | %7
 .F(F/E/) (F/A/)(^G/B/) .A(A/G/) (A/G/F/)A/ | .^G(E/F/) (=G/F/)E/G/ .F(D/E/) (F/E/)D/F/ | %9
 .E.E A6- | A/(B/A/)B/ (P^G>A) A2- A/(F/G/)A/ | B2- B/(E/F/)^G/ A2- A/(F/G/A/) | %12
 (^G/E/).A (PA>G) .A.A e2 | .e.A d2- d(c/B/) c/d/e/c/ | (f/e/d/c/) (PB3/2A/4B/4 A2) z A | %15
 .D/(A/B/=c/) (d/c/)B/A/ B2 d2- | d/(=c/B/A/) .Gc- c/A/.B (c/B/)A/G/ | .G.B (e4 P^d2 | %18
 e2- e/)(f/g/a/) (f/d/c/B/) (e/d/)(f/e/) | .d(c/B/) (P^A>B) B2 z/ (f/g/)f/ | %20
 (e/d/)c/e/ (d/B/)g- g.f .g z/ B/ | (A/G/F/A/) (G/E/)=c- c.B .c z/ e/ | %22
 (d/=c/B/d/) (c/A/)f- f e2 .d | .e z/ g/ (f/e/f/g/) (e/d/e/f/) (d/B/)^g- | %24
 g f2 .^e .f z/ a/ (=g/f/g/a/) | (f/e/f/g/) (e/d/e/f/) .d(c/B/) (P^A>B) | %26
 (B/c/)d- d/(f/e/B/) (c/A/)[Q:1/4=80]"_poco rall."(B/A/)[Q:1/4=70] (P^G>A) | %27
 (A/4E/4F/4^G/4A/4B/4c/4d/4)[Q:1/4=105]"_a tempo" (e/c/)(f/e/) d2- d/B/(e/d/) | %28
 c2- c/A/(d/c/) B2- B/d/(g/f/) | (e/d/4c/4d/e/) (P^A>B) .Bf/e/ d2- | %30
 d/B/(e/d/) .cA- A/(G/F/E/) .Dd- | d/(c/B/A/) .Ge- e/(d/c/B/) .Af- | f/(e/f/g/) (Pc>d) d2 .Ad- | %33
 d(c/B/) .c.A .B(B/A/) (B/d/)(c/e/) | .d(d/c/) (d/c/B/d/) .c(A/B/) =c/(B/A/c/) | %35
 .B!>(!(G/A/) (B/A/G/B/) A2[Q:1/4=80]"_rit." .A.d | %36
[Q:1/4=60]!mp!!>(! (!fermata!_e2-!>)!!>)! e/[Q:1/4=95]g/e/d/ c/e/d/c/[Q:1/4=10] !fermata!d/)[Q:1/4=50]c/(e/d/) | %37
 (Pc3 B/c/ !fermata!d4)[Q:1/4=40] |] %38
V:2
 z2!mf! .Ad- d(c/B/) .c.A | .B(B/A/) (B/d/)(c/e/) .d(d/c/) (d/c/B/d/) | %2
 .c(A/B/) (=c/B/A/c/) .B(G/A/) (B/A/G/B/) | .A.A d6 | .=c/(e/d/e/) (Pc>d) .d.A d2 | %5
 d/(B/A/^G/) (A/G/=F/)A/- A/(F/G/A/) (PG>A) | A2 z2 z2 .Be- | e(d/c/) .d.B .cc/B/ c/e/_e/f/ | %8
 .e.B e2- e.A d2- | d(c/B/) (c/d/)e/c/ (f/e/)d/c/ (B/c/)(B/c/) | %10
 (B/c/)(B/c/) (PB3/2A/4B/4) (c/A/)c/e/ f2- | f/(B/c/d/) e2- e/(B/c/d/) d2- | %12
 d.c (PB3/2A/4)B/4 .A(E/F/) (=G/F/E/)G/ | F(D/E/) (F/E/D/)F/ E^G A2- | %14
 A(B/A/) (^G>A) A/(E/F/)G/ (A/=G/)F/E/ | F2 z A- A/(D/E/)F/ G/A/B/A/ | (B/A/)G/F/ .E.A .F.G.D.F | %17
 (G2- G/A/B/=c/) (A/B/A/G/) (F/A/)G/F/ | .G.E c2- c B2 .^A | (B/F/E/D/) (PC>D) .D.F B2- | %20
 B.^A .B z/ d/ (=c/B/=A/c/) (B/G/)e- | e.d .e z/ g/ (=f/e/d/f/) (e/=c/)a- | %22
 a^g .a z/ =c/ (B/A/B/c/) (A/G/A/B/) | (G/E/) c2 B- B.^A .d z/ d/ | %24
 (c/B/c/d/) (B/A/B/c/) (A/F/) d2 c- | c B2 .^A B/(f/e/d/) (Pc3/2B/4c/4) | %26
 B2- B/(A/^G/F/) (E/C/)(D/C/) (PB,>C) | C2 z2 z (b/a/) g2- | %28
 g/e/(a/g/) f2- f/d/(g/f/) (e/B/)(e/d/) | (c/B/4^A/4B/c/) (Pc3/2B/4c/4) B2 z (B/=A/) | %30
 G2- G/E/(A/G/) .FA- A/(G/F/E/) | .DB- B/(A/G/F/) .Ec- c/((B/A/)G/) | (F/G/A/B/) (PE>F) F2 z2 | %33
 z2 .ea- a(g/f/) .g.e | .f(f/e/) (f/a/)(^g/b/) .a.e a2- | a!>(!.d g2- g(=f/e/ f/e/d/=c/) | %36
!mp!!>(! (!fermata!_B2-!>)!!>)! BG/=F/ E/G/F/E/ !fermata!F/)E/(G/F/) | (PE3 E !fermata!F4) |] %38
V:3
!mf! (D,E,F,)D, (A,A,,)(A,F,) | (G,F,E,)A, (D,C,B,,)E, | (A,G,F,D,) (G,F,E,D,) | %3
 (C,2 D,2) G,,(G,^G,)^G,, | (A,,D,) A,,2 D,,F,(B,,D,) | (^G,,E,,)(A,,D,) (E,D,)E,E,, | %6
 (A,,B,,C,)A,, (E,E,,)(E,C,) | (D,C,B,,)E, (A,^G,F,)B, | (E,D,C,A,,) (D,C,)B,,A,, | %9
 (^G,,2 A,,2) (D,2 ^D,2) | .E,.D,.E,.E,, A,,2 z .A,, | ^G,,2 z .G,, F,,2 z .F,, | %12
 .E,,(C,/D,/) (E,E,,) (A,,B,,)C,A,, | (D,C,B,,A,,) (^G,,E,,)(A,,C,) | %14
 .D,.B,,.E,.E,, (A,,B,,C,A,,) | (D,E,)F,D, G,(D,B,,)D, | G,,2 .B,,.A,, .D,.G,,.D,.D,, | %17
 G,,2 z .G, F,2 B,,2 | E,2 z .E, D,2 (C,F,) | .B,,.E,.F,.F,, B,,2 z .D, | %20
 .E,.F, .B,, z/ B,,/ .=C,.D, .G,, z/ G,/ | .A,.B, .E, z/ E,/ .=F,.G, .=C, z/ C,/ | %22
 .D,.E, .A,, z/ A,/ (G,2 F,2) | .E, z/ E,/ (D,2 C,2) .B,, z/ B,/ | (A,2 ^G,2) .F, z/ F,/ (E,2 | %25
 D,2) C,2 .B,,.E,.F,.F,, | B,,(B,^G,)E, (A,D,)(E,E,,) | A,,2 z .A, .B,.G,.E,.G, | %28
 .A,.F,.D,.F, .G,.E,.C,.B,, | (^A,,/F,,/B,,/E,/) .F,.F,, (B,,C,D,B,,) | E,(G,A,)A,, (D,E,F,)D, | %31
 (G,F,E,G,) (A,G,F,A,) | .B,.G,.A,.A,, (D,E,F,D,) | (A,A,,)(A,F,) (G,F,E,)A, | %34
 (D,C,B,,E,) (A,G,F,D,) | (G,!>(!F,E,D,) (C,2 D,2) | %36
!mp!!>(! !fermata!G,2!>)!!>)! G,,2 (A,,A,) !fermata!^G,2 | (A,2 A,,2 !fermata!D,4) |] %38

